X: 105
T: Silver Bells
C:
R: waltz
Z: 2018 John Chambers <jc:trillian.mit.edu>
M: 3/4
L: 1/8
K: C
cA |\
"C"G2 E2 cA | G2 E2 ed | "F"c2 A2 A2 | "Dm"A4 dc | "G"B2 G2 ^F2 |\
[1 "G7"=F2 G3 F | "C"F2 E4- | E4 :|[2 "G7"=F2 G2 d2 | "C"c6- | c6 |]
|:\
"C"EF G4- | G6 | "F"AB c4- | "Dm"c6 | "G"B2 B2 c2 |\
[1 d4 cB | "C"c2 G4- | G4 :|[2 d2 c2 B2 | "C"c6- | c6 |]

%%sep 1 1 500

